colors/luts/06_Sony LUTs_Nature.cube
LUT_3D_SIZE 16
0.056527 0.056527 0.056527
0.082373 0.054800 0.054800
0.150192 0.043827 0.043827
0.234806 -0.040122 -0.040122
0.317271 -0.075700 -0.075700
0.399435 -0.103582 -0.103582
0.477464 -0.128106 -0.128106
0.557488 -0.152385 -0.152385
0.638637 -0.176524 -0.176524
0.719941 -0.200388 -0.200388
0.802072 -0.224322 -0.224322
0.884693 -0.248262 -0.248262
0.966613 -0.271899 -0.271899
1.039049 -0.292742 -0.292742
1.086477 -0.306362 -0.306362
1.163942 -0.328574 -0.328574
0.024870 0.083439 0.024870
0.079759 0.079759 -0.016374
0.142747 0.080657 0.049769
0.227304 0.074425 -0.020900
0.311620 0.044163 -0.069934
0.395233 -0.069310 -0.100199
0.474153 -0.105606 -0.125708
0.554778 -0.135459 -0.150545
0.636389 -0.162949 -0.175019
0.718031 -0.189134 -0.199154
0.801438 -0.216576 -0.225065
0.882419 -0.238612 -0.246053
0.965720 -0.265161 -0.271660
1.038049 -0.286545 -0.292277
1.085478 -0.300730 -0.305753
1.162865 -0.323232 -0.327791
-0.106742 0.153848 -0.106742
-0.074623 0.152004 -0.109731
0.143525 0.143525 -0.117800
0.225010 0.145307 -0.061669
0.299888 0.146370 -0.049336
0.382069 0.138944 -0.082835
0.462165 0.120917 -0.112956
0.544459 0.086972 -0.141105
0.627410 -0.067278 -0.167647
0.710250 -0.125790 -0.193171
0.794452 -0.167493 -0.219888
0.877692 -0.200204 -0.243964
0.959210 -0.228336 -0.266156
1.033893 -0.257759 -0.290168
1.081205 -0.274875 -0.302917
1.158353 -0.299022 -0.324237
-0.179969 0.238722 -0.179969
-0.164843 0.237575 -0.181650
0.016356 0.232583 -0.188617
0.222061 0.222061 -0.196717
0.308258 0.217047 -0.136406
0.378967 0.218064 -0.098717
0.451037 0.215166 -0.096810
0.530220 0.208242 -0.120339
0.613082 0.195180 -0.150036
0.696795 0.174634 -0.178776
0.781646 0.141328 -0.207382
0.866527 0.074562 -0.234383
0.949397 -0.116611 -0.258365
1.023309 -0.172099 -0.280579
1.072977 -0.209198 -0.296606
1.149690 -0.240062 -0.316578
-0.249822 0.324656 -0.249822
-0.239951 0.323856 -0.250959
-0.189196 0.320441 -0.255750
0.148779 0.313312 -0.265114
0.301363 0.301363 -0.272388
0.390950 0.291220 -0.208950
0.456967 0.288160 -0.156172
0.527372 0.287732 -0.133713
0.603139 0.285704 -0.136852
0.683085 0.279765 -0.157718
0.767013 0.268438 -0.187951
0.850727 0.254050 -0.213996
0.935126 0.232022 -0.242397
1.009772 0.200396 -0.266448
1.060927 0.147682 -0.285337
1.137004 0.080458 -0.303248
-0.315709 0.407157 -0.315709
-0.308585 0.406589 -0.316561
-0.275073 0.404100 -0.320070
-0.178604 0.398898 -0.327075
0.233645 0.390041 -0.337574
0.378356 0.378356 -0.344262
0.468856 0.363468 -0.279901
0.538065 0.360003 -0.220159
0.607291 0.360200 -0.183446
0.680298 0.359739 -0.170277
0.757420 0.357718 -0.175518
0.838345 0.352486 -0.195152
0.921484 0.342574 -0.223488
0.995304 0.326873 -0.247391
1.046600 0.299680 -0.267903
1.121780 0.285428 -0.283300
-0.379553 0.487705 -0.379553
-0.374084 0.487273 -0.380219
-0.349286 0.485330 -0.382948
-0.289395 0.481326 -0.388386
-0.104941 0.474844 -0.396963
0.312972 0.465213 -0.408459
0.451791 0.451791 -0.412842
0.547816 0.437923 -0.351359
0.620350 0.433248 -0.287662
0.688873 0.432817 -0.241104
0.760656 0.433265 -0.216014
0.835574 0.433046 -0.206935
0.912880 0.430483 -0.213712
0.984018 0.421082 -0.230374
1.033144 0.400405 -0.247150
1.107428 0.393496 -0.259940
-0.444109 0.569492 -0.444109
-0.439717 0.569131 -0.444621
-0.420203 0.567554 -0.446828
-0.375961 0.564336 -0.451280
-0.284337 0.559171 -0.458254
0.185153 0.551628 -0.467923
0.391441 0.541515 -0.480289
0.527462 0.527462 -0.482953
0.627206 0.513562 -0.423316
0.702565 0.507309 -0.357045
0.772355 0.506239 -0.305087
0.842265 0.507163 -0.266716
0.914829 0.507230 -0.247366
0.981112 0.501221 -0.241550
1.026003 0.483498 -0.241226
1.099926 0.479081 -0.252223
-0.509392 0.652360 -0.509392
-0.505761 0.652076 -0.509838
-0.489749 0.650783 -0.511681
-0.454710 0.648072 -0.515369
-0.389173 0.643805 -0.521238
-0.253312 0.637594 -0.529355
0.290268 0.629341 -0.539890
0.469690 0.618619 -0.552791
0.604161 0.604161 -0.553885
0.706271 0.589717 -0.495402
0.784919 0.582607 -0.427245
0.855983 0.580622 -0.370718
0.925012 0.580556 -0.326311
0.987058 0.575282 -0.295434
1.027546 0.557762 -0.271642
1.102066 0.553559 -0.282341
-0.574747 0.735424 -0.574747
-0.571659 0.735157 -0.575129
-0.558159 0.734034 -0.576681
-0.529276 0.731748 -0.579825
-0.477772 0.728085 -0.584822
-0.387432 0.722892 -0.591815
-0.167798 0.715969 -0.600922
0.380767 0.707010 -0.612113
0.547752 0.695791 -0.625444
0.681078 0.681078 -0.624870
0.785953 0.666828 -0.568457
0.867889 0.658545 -0.500752
0.938575 0.655267 -0.436300
0.998127 0.648397 -0.382271
1.035671 0.628846 -0.337702
1.112026 0.623731 -0.349104
-0.641026 0.819723 -0.641026
-0.638358 0.819555 -0.641325
-0.626746 0.818583 -0.642671
-0.602149 0.816604 -0.645377
-0.559614 0.813520 -0.649722
-0.490116 0.808948 -0.655822
-0.368248 0.802937 -0.663840
0.205003 0.795302 -0.673651
0.466853 0.785704 -0.685442
0.626537 0.774202 -0.699148
0.759157 0.759157 -0.696604
0.866249 0.744732 -0.641272
0.949106 0.734523 -0.571759
1.011652 0.723235 -0.499029
1.048534 0.699799 -0.435104
1.128379 0.692869 -0.447727
-0.708221 0.905300 -0.708221
-0.705831 0.905092 -0.708450
-0.695658 0.904278 -0.709662
-0.674370 0.902536 -0.712091
-0.638165 0.899798 -0.715893
-0.581261 0.895882 -0.721251
-0.491055 0.890612 -0.728303
-0.324437 0.883867 -0.737061
0.335380 0.875626 -0.747640
0.550921 0.865578 -0.759793
0.705948 0.853706 -0.773787
0.838317 0.838317 -0.770204
0.944470 0.821559 -0.713769
1.021125 0.803251 -0.639677
1.061533 0.773541 -0.555248
1.147037 0.764233 -0.569191
-0.772404 0.987184 -0.772404
-0.770406 0.987030 -0.772697
-0.761373 0.986195 -0.773695
-0.742786 0.984739 -0.775869
-0.711421 0.982350 -0.779274
-0.663262 0.978794 -0.784003
-0.590834 0.974145 -0.790264
-0.476208 0.968283 -0.798145
-0.228344 0.960960 -0.807499
0.437504 0.952251 -0.818548
0.631456 0.941821 -0.831156
0.782792 0.929617 -0.845334
0.914415 0.914415 -0.840344
1.013706 0.890263 -0.777990
1.067582 0.852523 -0.688463
1.161161 0.840721 -0.703457
-0.829674 1.060124 -0.829674
-0.827862 1.059994 -0.829909
-0.819924 1.059357 -0.830802
-0.803462 1.057975 -0.832774
-0.776136 1.055823 -0.835780
-0.734918 1.052743 -0.840033
-0.674694 1.048654 -0.845556
-0.585731 1.043423 -0.852540
-0.441100 1.037025 -0.860988
0.206455 1.029315 -0.870814
0.524888 1.020200 -0.882182
0.704919 1.009567 -0.894974
0.851608 0.997171 -0.909018
0.982916 0.982916 -0.903316
1.058529 0.937964 -0.824011
1.162557 0.924063 -0.839648
-0.868733 1.109948 -0.868733
-0.867139 1.109847 -0.868983
-0.860235 1.109209 -0.869763
-0.845848 1.108073 -0.871480
-0.822205 1.106155 -0.874054
-0.786878 1.103503 -0.877823
-0.736286 1.099875 -0.882694
-0.664624 1.095315 -0.888863
-0.558719 1.089706 -0.896298
-0.374975 1.083025 -0.905039
0.354322 1.075058 -0.915027
0.595105 1.065850 -0.926434
0.761467 1.055237 -0.939160
0.902461 1.043117 -0.953176
1.027740 1.027740 -0.944323
1.143917 1.012924 -0.960036
-0.930740 1.189027 -0.930740
-0.929335 1.188884 -0.930982
-0.923080 1.188379 -0.931663
-0.910077 1.187243 -0.933223
-0.888791 1.185568 -0.935602
-0.857285 1.183095 -0.939005
-0.812878 1.179883 -0.943409
-0.751444 1.175761 -0.949034
-0.665217 1.170727 -0.955832
-0.535786 1.164614 -0.963833
-0.276961 1.157508 -0.973114
0.464598 1.149200 -0.983531
0.676144 1.139668 -0.995150
0.837033 1.128759 -1.008115
0.977192 1.113973 -0.996953
1.100953 1.100953 -1.011745
0.054427 0.054427 0.093193
0.090132 0.047457 0.090132
0.162530 -0.024283 0.079730
0.242378 -0.060054 0.062719
0.322025 -0.085345 -0.031975
0.402482 -0.109326 -0.081854
0.479430 -0.131780 -0.112587
0.558735 -0.154713 -0.139969
0.639328 -0.177853 -0.165919
0.720142 -0.200943 -0.190987
0.802878 -0.225888 -0.217419
0.884991 -0.248853 -0.241474
0.966626 -0.272064 -0.265545
1.039062 -0.292869 -0.287145
1.086494 -0.306484 -0.301490
1.163889 -0.328699 -0.324163
0.016558 0.082237 0.082237
0.078560 0.078560 0.078560
0.148410 0.072643 0.072643
0.233805 0.052769 0.052769
0.316724 -0.049887 -0.049887
0.399083 -0.089370 -0.089370
0.477138 -0.117999 -0.117999
0.557220 -0.144627 -0.144627
0.638417 -0.170265 -0.170265
0.719721 -0.195193 -0.195193
0.801910 -0.219905 -0.219905
0.884591 -0.244436 -0.244436
0.966537 -0.268553 -0.268553
1.038940 -0.289716 -0.289716
1.086370 -0.303534 -0.303534
1.163839 -0.325997 -0.325997
-0.107773 0.153222 -0.071189
-0.083280 0.151846 -0.083280
0.143012 0.143012 -0.096305
0.223426 0.143604 0.047338
0.300369 0.142671 0.043664
0.383638 0.132970 -0.065774
0.464251 0.111614 -0.104319
0.546373 0.069180 -0.134952
0.629143 -0.086601 -0.162833
0.711777 -0.135405 -0.189197
0.794780 -0.171852 -0.214594
0.877429 -0.202573 -0.238411
0.962545 -0.237189 -0.267342
1.034733 -0.261338 -0.287625
1.082115 -0.277948 -0.300705
1.159298 -0.302032 -0.322468
-0.180544 0.238329 -0.163562
-0.169971 0.237645 -0.169971
-0.048227 0.232573 -0.178020
0.222239 0.222239 -0.187708
0.307356 0.215979 -0.119896
0.378355 0.216577 -0.077851
0.451133 0.213088 -0.080248
0.531087 0.205140 -0.111390
0.614240 0.191049 -0.144217
0.697956 0.169167 -0.174429
0.783494 0.130914 -0.205453
0.866270 0.064949 -0.228608
0.950127 -0.125836 -0.255223
1.024082 -0.177900 -0.278006
1.073802 -0.213441 -0.294418
1.150567 -0.243901 -0.314780
-0.250211 0.324388 -0.239151
-0.243648 0.323955 -0.243648
-0.193839 0.320525 -0.248932
0.144670 0.313290 -0.258541
0.301705 0.301705 -0.266715
0.390547 0.290472 -0.200048
0.456330 0.287341 -0.144477
0.527049 0.286667 -0.121890
0.603188 0.284299 -0.127255
0.683549 0.277820 -0.151451
0.766980 0.266758 -0.181459
0.851864 0.250494 -0.211569
0.937511 0.225201 -0.243457
1.012563 0.190274 -0.268475
1.061641 0.141157 -0.283034
1.137753 0.061106 -0.301355
-0.315993 0.406969 -0.308024
-0.311279 0.406667 -0.311279
-0.278096 0.404126 -0.315046
-0.182887 0.398891 -0.322160
0.232010 0.390440 -0.333323
0.378278 0.378278 -0.340071
0.468555 0.362987 -0.273557
0.537565 0.359445 -0.212403
0.606925 0.359496 -0.175064
0.680123 0.358907 -0.162347
0.757474 0.356623 -0.168949
0.838158 0.351531 -0.188584
0.921812 0.340995 -0.219586
0.997355 0.323117 -0.248680
1.047123 0.297677 -0.265348
1.122357 0.283075 -0.281107
-0.379758 0.487548 -0.373658
-0.376162 0.487312 -0.376162
-0.351553 0.485372 -0.379031
-0.291872 0.481353 -0.384540
-0.112634 0.474844 -0.393204
0.312233 0.465666 -0.405370
0.451670 0.451670 -0.409559
0.547643 0.437561 -0.346725
0.619998 0.432821 -0.282040
0.688529 0.432356 -0.234908
0.760413 0.432729 -0.209474
0.835717 0.432193 -0.202215
0.912976 0.429603 -0.208914
0.984172 0.420107 -0.226420
1.033427 0.399395 -0.243932
1.107783 0.392348 -0.257055
-0.444296 0.569376 -0.439368
-0.441396 0.569174 -0.441396
-0.422011 0.567605 -0.443739
-0.377846 0.564367 -0.448122
-0.286675 0.559193 -0.455197
0.181801 0.551616 -0.464979
0.390735 0.541457 -0.477498
0.527389 0.527389 -0.480314
0.627095 0.513310 -0.419764
0.702341 0.506981 -0.352761
0.772077 0.505840 -0.300554
0.842780 0.506432 -0.264772
0.914664 0.506711 -0.242609
0.981020 0.500649 -0.237005
1.026008 0.482957 -0.237008
1.099930 0.478494 -0.248256
-0.509548 0.652288 -0.505468
-0.507173 0.652082 -0.507173
-0.491217 0.650793 -0.509073
-0.456205 0.648107 -0.512778
-0.390857 0.643829 -0.518662
-0.255887 0.637633 -0.526864
0.288630 0.629328 -0.537507
0.469177 0.618579 -0.550516
0.604083 0.604083 -0.551714
0.706212 0.589482 -0.492575
0.784955 0.582293 -0.424752
0.855862 0.580296 -0.367175
0.924849 0.580203 -0.322433
0.986023 0.575280 -0.288009
1.027442 0.557427 -0.267515
1.101964 0.553205 -0.278355
-0.574885 0.735363 -0.571413
-0.572869 0.735223 -0.572869
-0.559461 0.734111 -0.574513
-0.530467 0.731800 -0.577597
-0.479120 0.728126 -0.582627
-0.389011 0.722917 -0.589686
-0.172061 0.715972 -0.598828
0.379711 0.706993 -0.610110
0.547334 0.695749 -0.623487
0.681049 0.681049 -0.623025
0.785807 0.666450 -0.566925
0.867923 0.658331 -0.498705
0.939442 0.654679 -0.437408
0.998941 0.647715 -0.383241
1.035485 0.628631 -0.334145
1.111785 0.623476 -0.345603
-0.641106 0.819739 -0.638105
-0.639372 0.819597 -0.639372
-0.627825 0.818633 -0.640813
-0.603237 0.816641 -0.643495
-0.560788 0.813551 -0.647845
-0.491358 0.808971 -0.653974
-0.369924 0.802950 -0.661992
0.201861 0.795301 -0.671888
0.466106 0.785686 -0.683719
0.626228 0.774178 -0.697491
0.759077 0.759077 -0.695302
0.866038 0.744416 -0.639830
0.949859 0.734239 -0.573193
1.012599 0.722758 -0.500794
1.048349 0.699595 -0.432228
1.128180 0.692693 -0.444859
-0.708286 0.905268 -0.705666
-0.706831 0.905134 -0.706831
-0.696710 0.904332 -0.708052
-0.675360 0.902574 -0.710452
-0.639181 0.899832 -0.714217
-0.582319 0.895909 -0.719587
-0.492265 0.890631 -0.726747
-0.326332 0.883876 -0.735501
0.333884 0.875622 -0.746058
0.550389 0.865559 -0.758376
0.705718 0.853721 -0.772360
0.838519 0.838519 -0.767892
0.944375 0.821393 -0.711924
1.021005 0.803086 -0.637564
1.061386 0.773474 -0.553021
1.146892 0.764140 -0.566895
-0.772503 0.987094 -0.770213
-0.771146 0.987070 -0.771146
-0.762306 0.986241 -0.772332
-0.743488 0.984776 -0.774367
-0.712194 0.982282 -0.777788
-0.664196 0.978823 -0.782537
-0.591805 0.974167 -0.788889
-0.477402 0.968297 -0.796737
-0.231243 0.960965 -0.806180
0.436524 0.952244 -0.817194
0.631062 0.941799 -0.829844
0.782559 0.929650 -0.844108
0.914347 0.914347 -0.839004
1.013652 0.890190 -0.776313
1.067499 0.852415 -0.686691
1.161032 0.840556 -0.701650
-0.829767 1.060101 -0.827732
-0.828558 1.060017 -0.828558
-0.820673 1.059384 -0.829526
-0.804195 1.057996 -0.831410
-0.776898 1.055842 -0.834382
-0.735689 1.052760 -0.838639
-0.675495 1.048668 -0.844269
-0.586653 1.043433 -0.851281
-0.442310 1.037030 -0.859686
0.203384 1.029314 -0.869611
0.524240 1.020191 -0.881017
0.704584 1.009551 -0.893789
0.851439 0.997092 -0.907857
0.982859 0.982859 -0.902095
1.058494 0.937920 -0.822667
1.162600 0.923965 -0.838261
-0.868818 1.109898 -0.866974
-0.867752 1.109859 -0.867752
-0.860796 1.109226 -0.868541
-0.846461 1.108083 -0.870182
-0.822763 1.106165 -0.872861
-0.787476 1.103511 -0.876603
-0.736942 1.099880 -0.881460
-0.665265 1.095318 -0.887638
-0.559455 1.089706 -0.895120
-0.376183 1.083021 -0.903853
0.353161 1.075049 -0.913917
0.594664 1.065835 -0.925342
0.761183 1.055216 -0.938078
0.902298 1.043089 -0.952112
1.027706 1.027706 -0.943286
1.143912 1.012823 -0.958971
-0.930821 1.188978 -0.929176
-0.929820 1.188896 -0.929820
-0.923551 1.188395 -0.930566
-0.910574 1.187253 -0.932109
-0.889285 1.185577 -0.934496
-0.857809 1.183104 -0.937909
-0.813493 1.179890 -0.942384
-0.752010 1.175766 -0.947973
-0.665872 1.170730 -0.954752
-0.536590 1.164614 -0.962759
-0.278843 1.157504 -0.971931
0.463808 1.149192 -0.982533
0.675776 1.139656 -0.994147
0.836770 1.128742 -1.007131
0.977086 1.113957 -0.996080
1.100920 1.100920 -1.010812
0.039956 0.039956 0.179867
0.090391 0.023327 0.178408
0.171888 -0.061604 0.171888
0.269827 -0.105805 0.166107
0.345240 -0.122475 0.143735
0.420553 -0.138523 0.119737
0.492708 -0.153703 0.085415
0.569295 -0.172290 -0.060013
0.647963 -0.192373 -0.116836
0.727471 -0.213232 -0.154058
0.807118 -0.233210 -0.183908
0.891563 -0.259724 -0.218540
0.971421 -0.280077 -0.243986
1.044193 -0.301406 -0.270003
1.088930 -0.310714 -0.283228
1.166504 -0.333162 -0.308454
-0.046504 0.080558 0.174848
0.070943 0.070943 0.174568
0.167559 0.034665 0.167559
0.265252 -0.084953 0.157539
0.339716 -0.103356 0.135902
0.414666 -0.120590 0.113865
0.489313 -0.140795 0.076098
0.566550 -0.161610 -0.070823
0.645708 -0.183394 -0.121173
0.725592 -0.205547 -0.156905
0.806712 -0.228431 -0.188386
0.886898 -0.248855 -0.214406
0.970523 -0.275490 -0.246078
1.040398 -0.292570 -0.266592
1.087971 -0.306448 -0.284022
1.165503 -0.329061 -0.308926
-0.112024 0.150526 0.150526
-0.089503 0.148985 0.148985
0.139515 0.139515 0.139515
0.228807 0.133632 0.133632
0.313621 0.121530 0.121530
0.396809 0.100882 0.100882
0.475393 0.060340 0.060340
0.555805 -0.082982 -0.082982
0.637224 -0.127796 -0.127796
0.718761 -0.162229 -0.162229
0.801052 -0.192932 -0.192932
0.883838 -0.221683 -0.221683
0.965892 -0.248903 -0.248903
1.038354 -0.272208 -0.272208
1.085868 -0.287220 -0.287220
1.163285 -0.311322 -0.311322
-0.182963 0.236659 0.063466
-0.172669 0.235915 0.038835
-0.087144 0.231652 -0.087144
0.220693 0.220693 -0.115104
0.302281 0.214107 0.108168
0.376531 0.213193 0.118892
0.453688 0.206559 0.102156
0.535977 0.194810 0.045623
0.619678 0.176830 -0.100673
0.703295 0.149599 -0.144562
0.786551 0.106084 -0.177749
0.871559 -0.089869 -0.210905
0.955509 -0.157521 -0.241034
1.027379 -0.194459 -0.262265
1.077246 -0.225676 -0.280782
1.154335 -0.255463 -0.303436
-0.251857 0.323231 -0.183188
-0.245380 0.322786 -0.188802
-0.205347 0.320122 -0.205347
0.132055 0.312614 -0.217765
0.300140 0.300140 -0.229481
0.387954 0.288832 -0.140987
0.453580 0.285993 0.024677
0.526031 0.284504 0.070121
0.603998 0.280624 -0.025472
0.686065 0.272111 -0.107327
0.770856 0.258290 -0.154962
0.855500 0.240343 -0.190527
0.938046 0.218566 -0.218550
1.013150 0.181991 -0.247088
1.064648 0.118846 -0.268865
1.140997 -0.079202 -0.289391
-0.317211 0.406106 -0.271511
-0.312529 0.405800 -0.275116
-0.285585 0.403885 -0.285585
-0.193983 0.398571 -0.294015
0.226673 0.389957 -0.306546
0.377150 0.377150 -0.314749
0.466768 0.361789 -0.237733
0.535296 0.358503 -0.165828
0.605294 0.358328 -0.119464
0.679481 0.357195 -0.107448
0.757706 0.354158 -0.124668
0.840190 0.347174 -0.160980
0.923235 0.336616 -0.195696
0.997719 0.319755 -0.225337
1.049450 0.291984 -0.249594
1.124871 0.276078 -0.267509
-0.380707 0.486904 -0.346752
-0.377120 0.486658 -0.349379
-0.356882 0.485175 -0.356882
-0.297773 0.481085 -0.362663
-0.129443 0.474497 -0.372271
0.308992 0.464819 -0.385099
0.451107 0.451107 -0.390644
0.546429 0.436592 -0.321689
0.618249 0.432034 -0.251209
0.686924 0.431552 -0.199382
0.759099 0.431768 -0.170764
0.835092 0.430804 -0.166103
0.912933 0.427690 -0.178229
0.984239 0.418209 -0.199754
1.034750 0.396788 -0.224585
1.109225 0.389295 -0.239813
-0.445041 0.568841 -0.418208
-0.442159 0.568640 -0.420306
-0.426140 0.567446 -0.426140
-0.382388 0.564194 -0.430906
-0.292307 0.558938 -0.438257
0.172840 0.551360 -0.448636
0.388737 0.541059 -0.461862
0.526881 0.526881 -0.465371
0.626273 0.512506 -0.400831
0.700973 0.506283 -0.329974
0.770040 0.505431 -0.272223
0.840730 0.506060 -0.232962
0.914121 0.505616 -0.215312
0.981009 0.499338 -0.211874
1.026080 0.481991 -0.212525
1.100021 0.477406 -0.225531
-0.510163 0.651808 -0.488137
-0.507797 0.651675 -0.489882
-0.494712 0.650695 -0.494712
-0.459743 0.647977 -0.498438
-0.394852 0.643675 -0.504637
-0.262121 0.637430 -0.513203
0.284336 0.629054 -0.524270
0.467739 0.618271 -0.537838
0.603711 0.603711 -0.539470
0.705689 0.588838 -0.477539
0.784071 0.581639 -0.407774
0.853951 0.579943 -0.344406
0.923963 0.579525 -0.301592
0.985326 0.574636 -0.265469
1.026921 0.556957 -0.244246
1.101398 0.552790 -0.256203
-0.575415 0.734974 -0.556841
-0.573385 0.734833 -0.558288
-0.562408 0.733925 -0.562408
-0.533717 0.731716 -0.565751
-0.482334 0.728061 -0.570756
-0.392864 0.722810 -0.578027
-0.182149 0.715803 -0.587475
0.376985 0.706822 -0.599096
0.546225 0.695492 -0.612883
0.680682 0.680682 -0.612741
0.785365 0.666005 -0.553691
0.866990 0.657778 -0.483947
0.937472 0.654422 -0.417418
0.998032 0.647279 -0.365809
1.034656 0.628421 -0.314998
1.110886 0.623308 -0.326975
-0.641600 0.819368 -0.625577
-0.639826 0.819224 -0.626848
-0.630447 0.818530 -0.630447
-0.605978 0.816537 -0.633248
-0.563549 0.813420 -0.637649
-0.494447 0.808859 -0.643917
-0.373966 0.802776 -0.652108
0.193480 0.795096 -0.662252
0.464113 0.785553 -0.674363
0.625356 0.773887 -0.688428
0.759088 0.759088 -0.687042
0.866154 0.744301 -0.630229
0.948277 0.733886 -0.557168
1.010618 0.722626 -0.482652
1.047497 0.699463 -0.417278
1.127134 0.692460 -0.430069
-0.708744 0.904967 -0.694692
-0.707146 0.904833 -0.695766
-0.699040 0.904241 -0.699040
-0.677694 0.902474 -0.701366
-0.641628 0.899721 -0.705311
-0.584923 0.895785 -0.710838
-0.495297 0.890533 -0.718066
-0.331081 0.883757 -0.726961
0.329908 0.875425 -0.737762
0.548837 0.865422 -0.750255
0.704995 0.853445 -0.764561
0.838280 0.838280 -0.761596
0.944567 0.821069 -0.705449
1.020406 0.802698 -0.626937
1.060681 0.773212 -0.541353
1.145947 0.763833 -0.555241
-0.772915 0.986879 -0.760468
-0.771559 0.986746 -0.761512
-0.764323 0.986265 -0.764323
-0.745675 0.984695 -0.766492
-0.714362 0.982280 -0.769848
-0.666374 0.978708 -0.774805
-0.594258 0.974135 -0.781164
-0.480411 0.968147 -0.789070
-0.238449 0.960903 -0.798716
0.433962 0.952043 -0.809939
0.629837 0.941646 -0.822731
0.781966 0.929380 -0.837178
0.914121 0.914121 -0.831585
1.013312 0.889755 -0.767950
1.067044 0.852165 -0.677668
1.160499 0.840115 -0.692425
-0.830125 1.059866 -0.819141
-0.828844 1.059782 -0.819992
-0.822398 1.059315 -0.822398
-0.805992 1.057931 -0.824308
-0.778653 1.055763 -0.827295
-0.737527 1.052675 -0.831572
-0.677371 1.048576 -0.837213
-0.588823 1.043349 -0.844306
-0.445245 1.036918 -0.852940
0.195465 1.029189 -0.862935
0.522515 1.020061 -0.874425
0.703615 1.009392 -0.887475
0.850790 0.996734 -0.901492
0.982626 0.982626 -0.895539
1.058237 0.937617 -0.815662
1.162271 0.923525 -0.830984
-0.869118 1.109676 -0.859534
-0.867997 1.109590 -0.860240
-0.861878 1.109114 -0.861878
-0.847582 1.107979 -0.863599
-0.823897 1.106046 -0.866219
-0.788572 1.103338 -0.869961
-0.738117 1.099755 -0.874931
-0.666604 1.095228 -0.881211
-0.560994 1.089570 -0.888744
-0.378687 1.082878 -0.897565
0.350699 1.074939 -0.907765
0.593614 1.065701 -0.919285
0.760600 1.055067 -0.932117
0.901969 1.042927 -0.946370
1.027534 1.027534 -0.937614
1.143817 1.012423 -0.953148
-0.931101 1.188861 -0.922369
-0.930101 1.188778 -0.923085
-0.924570 1.188287 -0.924570
-0.911650 1.187212 -0.926100
-0.890307 1.185464 -0.928469
-0.858853 1.183075 -0.931904
-0.814541 1.179786 -0.936342
-0.753197 1.175645 -0.942066
-0.667277 1.170607 -0.948931
-0.538371 1.164537 -0.957027
-0.282995 1.157335 -0.966256
0.461866 1.149020 -0.976841
0.674697 1.139543 -0.988708
0.836069 1.128594 -1.001733
0.976546 1.113826 -0.990905
1.100741 1.100741 -1.005637
-0.049499 -0.049499 0.281439
0.080476 -0.058623 0.280533
0.176771 -0.084828 0.276602
0.268920 -0.117979 0.268920
0.368032 -0.156953 0.260622
0.452014 -0.181642 0.237881
0.520076 -0.192619 0.211011
0.591737 -0.205482 0.186031
0.666505 -0.220655 0.157236
0.743000 -0.237531 0.115419
0.820804 -0.255010 -0.054844
0.900416 -0.274219 -0.136893
0.981129 -0.295868 -0.185575
1.051683 -0.313775 -0.220901
1.096713 -0.323555 -0.244608
1.174858 -0.346769 -0.277570
-0.074698 0.066438 0.278377
0.044499 0.044499 0.278647
0.169481 -0.058097 0.274656
0.267209 -0.104173 0.267209
0.366610 -0.147728 0.256492
0.448230 -0.171113 0.232423
0.517033 -0.183227 0.206218
0.589034 -0.196934 0.181626
0.664215 -0.213014 0.152620
0.741068 -0.230734 0.109127
0.820463 -0.250923 -0.076675
0.900719 -0.271432 -0.146050
0.977498 -0.287409 -0.182441
1.047788 -0.305167 -0.216842
1.095674 -0.319455 -0.245737
1.173785 -0.342809 -0.278212
-0.128613 0.152868 0.264667
-0.108653 0.148736 0.264631
0.131433 0.131433 0.262707
0.254151 0.102032 0.254151
0.356055 -0.057673 0.237139
0.432911 -0.098252 0.213206
0.502341 -0.118707 0.192115
0.576818 -0.142595 0.170542
0.654023 -0.167089 0.142467
0.732435 -0.191448 0.096218
0.813405 -0.217552 -0.092325
0.893465 -0.240391 -0.149266
0.976048 -0.267761 -0.195942
1.046409 -0.287095 -0.226506
1.091345 -0.297529 -0.245744
1.169148 -0.322058 -0.276957
-0.187775 0.233215 0.233215
-0.177987 0.232378 0.232378
-0.100659 0.227802 0.227802
0.215850 0.215850 0.215850
0.305895 0.210001 0.210001
0.391290 0.201263 0.201263
0.471135 0.189458 0.189458
0.552439 0.172446 0.172446
0.634439 0.147353 0.147353
0.716392 0.105735 0.105735
0.798977 -0.075223 -0.075223
0.882099 -0.144535 -0.144535
0.964294 -0.188602 -0.188602
1.036927 -0.221214 -0.221214
1.084487 -0.240818 -0.240818
1.162106 -0.270845 -0.270845
-0.255160 0.320873 0.168655
-0.248843 0.320396 0.164098
-0.209923 0.317606 0.146851
0.117268 0.310289 0.117268
0.298010 0.298010 0.058821
0.379825 0.289191 0.186668
0.449135 0.287015 0.199074
0.526622 0.283318 0.192650
0.609390 0.275503 0.174295
0.693416 0.263536 0.144488
0.778477 0.246804 0.087204
0.864759 0.222511 -0.115118
