colors/luts/06_Sony LUTs_Nature.cube
LUT_3D_SIZE 6
0.056527 0.056527 0.056527
0.234806 -0.040122 -0.040122
0.477464 -0.128106 -0.128106
0.719941 -0.200388 -0.200388
0.966613 -0.271899 -0.271899
1.163942 -0.328574 -0.328574
-0.179969 0.238722 -0.179969
0.222061 0.222061 -0.196717
0.451037 0.215166 -0.096810
0.696795 0.174634 -0.178776
0.949397 -0.116611 -0.258365
1.149690 -0.240062 -0.316578
-0.379553 0.487705 -0.379553
-0.289395 0.481326 -0.388386
0.451791 0.451791 -0.412842
0.688873 0.432817 -0.241104
0.912880 0.430483 -0.213712
1.107428 0.393496 -0.259940
-0.574747 0.735424 -0.574747
-0.529276 0.731748 -0.579825
-0.167798 0.715969 -0.600922
0.681078 0.681078 -0.624870
0.938575 0.655267 -0.436300
1.112026 0.623731 -0.349104
-0.772404 0.987184 -0.772404
-0.742786 0.984739 -0.775869
-0.590834 0.974145 -0.790264
0.437504 0.952251 -0.818548
0.914415 0.914415 -0.840344
1.161161 0.840721 -0.703457
-0.930740 1.189027 -0.930740
-0.910077 1.187243 -0.933223
-0.812878 1.179883 -0.943409
-0.535786 1.164614 -0.963833
0.676144 1.139668 -0.995150
1.100953 1.100953 -1.011745
-0.049499 -0.049499 0.281439
0.268920 -0.117979 0.268920
0.520076 -0.192619 0.211011
0.743000 -0.237531 0.115419
0.981129 -0.295868 -0.185575
1.174858 -0.346769 -0.277570
-0.187775 0.233215 0.233215
0.215850 0.215850 0.215850
0.471135 0.189458 0.189458
0.716392 0.105735 0.105735
0.964294 -0.188602 -0.188602
1.162106 -0.270845 -0.270845
-0.382615 0.485566 -0.280528
-0.301466 0.479784 -0.301466
0.449679 0.449679 -0.338471
0.683588 0.432258 0.071395
0.913892 0.426135 0.053297
1.112621 0.386430 -0.187848
-0.576475 0.734182 -0.525422
-0.535253 0.731010 -0.535253
-0.189153 0.714938 -0.558898
0.679857 0.679857 -0.586729
0.935515 0.654409 -0.377735
1.108878 0.624518 -0.277422
-0.773538 0.986331 -0.740331
-0.746821 0.984210 -0.746821
-0.596020 0.973665 -0.762318
0.431634 0.951589 -0.792038
0.913650 0.913650 -0.815134
1.159145 0.840040 -0.670844
-0.931606 1.188455 -0.908429
-0.911206 1.186709 -0.911206
-0.814444 1.179364 -0.921928
-0.538755 1.164087 -0.943019
0.673788 1.139151 -0.975217
1.100348 1.100348 -0.992859
-0.140221 -0.140221 0.577115
0.255485 -0.171486 0.572077
0.549764 -0.256923 0.549764
0.831182 -0.356131 0.500857
1.053418 -0.397754 0.421832
1.235841 -0.435002 0.317540
-0.224346 0.213803 0.559907
0.183084 0.183084 0.556383
0.532731 -0.128069 0.532731
0.813895 -0.282924 0.476598
1.036328 -0.332588 0.404092
1.220112 -0.376947 0.310732
-0.395212 0.476171 0.476171
-0.318135 0.469993 0.469993
0.439657 0.439657 0.439657
0.699451 0.420781 0.420781
0.953243 0.386987 0.386987
1.153610 0.343958 0.343958
-0.583807 0.728926 0.118011
-0.543035 0.725671 -0.075443
-0.224643 0.709603 -0.224643
0.674336 0.674336 -0.319587
0.919034 0.656398 0.350835
1.097870 0.634222 0.381413
-0.778581 0.982776 -0.573004
-0.751912 0.980590 -0.581450
-0.606508 0.970321 -0.606508
0.416763 0.948064 -0.646911
0.909970 0.909970 -0.682604
1.149376 0.841540 -0.487520
-0.935105 1.185956 -0.802597
-0.914804 1.184213 -0.805940
-0.811021 1.176055 -0.811021
-0.535616 1.160901 -0.835843
0.672590 1.136001 -0.873489
1.097515 1.097515 -0.896645
-0.217891 -0.217891 0.870719
0.202812 -0.236642 0.867773
0.537211 -0.300135 0.855399
0.829364 -0.390665 0.829364
1.123436 -0.496944 0.791148
1.337002 -0.562837 0.690625
-0.274246 0.136226 0.861012
0.028103 0.028103 0.859197
0.516631 -0.212120 0.846506
0.819892 -0.337324 0.819892
1.117321 -0.460458 0.779349
1.327053 -0.527129 0.677698
-0.422147 0.459304 0.817657
-0.351729 0.450478 0.815338
0.416654 0.416654 0.802143
0.773230 0.335417 0.773230
1.080370 -0.085833 0.724681
1.274822 -0.263925 0.633924
-0.598317 0.717974 0.717974
-0.559170 0.714473 0.714473
-0.273703 0.698099 0.698099
0.662698 0.662698 0.662698
0.929866 0.645457 0.645457
1.135828 0.625620 0.625620
-0.788510 0.975484 0.501221
-0.762413 0.973264 0.492601
-0.620644 0.962816 0.460682
0.381715 0.940778 0.381715
0.902402 0.902402 0.254841
1.124290 0.852480 0.532720
-0.942179 1.180853 -0.483853
-0.922075 1.179129 -0.490902
-0.819606 1.170905 -0.504481
-0.516297 1.153682 -0.516297
0.681172 1.128863 -0.585107
1.091691 1.091691 -0.631946
-0.295012 -0.295012 1.168787
-0.110372 -0.307869 1.166885
0.513395 -0.355878 1.158668
0.820583 -0.432494 1.141522
1.113728 -0.525903 1.113728
1.350792 -0.604963 1.032613
-0.335594 -0.190274 1.162308
-0.223083 -0.223083 1.161264
0.489770 -0.292100 1.152914
0.809511 -0.386821 1.135531
1.107493 -0.492516 1.107493
1.345978 -0.577860 1.025038
-0.460557 0.427507 1.133916
-0.399046 0.416335 1.132654
0.374509 0.374509 1.124812
0.760482 0.272929 1.106754
1.077570 -0.251412 1.077570
1.323300 -0.416325 0.994479
-0.625040 0.705029 1.072844
-0.587544 0.700252 1.071234
-0.339449 0.682070 1.062469
0.641789 0.641789 1.044223
1.012133 0.573631 1.012133
1.274720 0.485605 0.934879
-0.804111 0.963630 0.963630
-0.778746 0.961377 0.961377
-0.642322 0.950714 0.950714
0.333189 0.928091 0.928091
0.889408 0.889408 0.889408
1.105891 0.876819 0.876819
-0.953305 1.172568 0.741548
-0.933550 1.170830 0.737259
-0.832974 1.162665 0.726080
-0.541053 1.145355 0.713860
0.717704 1.115700 0.717704
1.082059 1.082059 0.670942
-0.356375 -0.356375 1.407955
-0.261045 -0.365526 1.406508
0.453018 -0.401409 1.400740
0.770042 -0.463076 1.388756
1.059470 -0.542763 1.369372
1.341038 -0.633720 1.341038
-0.385949 -0.292366 1.403329
-0.305167 -0.305167 1.402048
0.428925 -0.350221 1.396212
0.758760 -0.422314 1.384187
1.052183 -0.510776 1.364659
1.336248 -0.608454 1.336248
-0.486631 0.355977 1.383491
-0.432186 0.345721 1.382186
0.318182 0.318182 1.374285
0.713883 0.190371 1.362141
1.022532 -0.295994 1.342357
1.313391 -0.462516 1.313391
-0.631211 0.653557 1.341881
-0.594745 0.649075 1.340567
-0.364243 0.636515 1.332684
0.617369 0.617369 1.314702
0.964439 0.554224 1.294040
1.264604 0.444307 1.264604
-0.795458 0.912202 1.271497
-0.769400 0.909315 1.270076
-0.632007 0.899892 1.262051
0.336358 0.885764 1.243507
0.874136 0.874136 1.207886
1.178561 0.826962 1.178561
-0.968879 1.160716 1.160716
-0.949588 1.158926 1.158926
-0.851569 1.150751 1.150751
-0.573114 1.133608 1.133608
0.697820 1.104606 1.104606
1.071203 1.071203 1.071203
